dist/svgs/core-ui-icons/brand/cib-vagrant.svg

<svg xmlns="http://www.w3.org/2000/svg" width="32" height="32" viewBox="0 0 32 32">
  <path d="M7.563 9.031v-2.474l4.219-2.432-7.036-4.12-4.214 2.464v3.016l9.495 23.063 5.974 3.448v-8.661l2.807-1.635-0.031-0.016 5.661-12.651v-2.474l7.031-4.089-4.219-2.464-7.031 4.12v2.813l-4.219 9.844v3.286l-2.813 1.63zM11.781 4.151l-0.031-0.016-4.188 2.422v2.474l5.625 12.667 2.813-1.385v-3.531l-4.219-9.844zM24.438 6.557v2.474l-5.625 12.135-2.813 1.943v8.885l6.026-3.479 9.443-23.115v-2.932z"/>
</svg>

<svg xmlns="http://www.w3.org/2000/svg" viewBox="0 0 32 32"><path d="M7.563 9.031V6.557l4.219-2.432L4.746.005.532 2.469v3.016l9.495 23.063 5.974 3.448v-8.661l2.807-1.635-.031-.016 5.661-12.651V6.559l7.031-4.089L27.25.006l-7.031 4.12v2.813L16 16.783v3.286l-2.813 1.63zm4.218-4.88l-.031-.016-4.188 2.422v2.474l5.625 12.667L16 20.313v-3.531l-4.219-9.844zm12.657 2.406v2.474l-5.625 12.135L16 23.109v8.885l6.026-3.479L31.469 5.4V2.468z"/></svg>
